icons/1_Primary/Python Package Index.svg

<svg width="1024" height="1024" viewBox="0 0 1024 1024" fill="none" xmlns="http://www.w3.org/2000/svg">
<g clip-path="url(#clip0_2_3243)">
<path d="M512 1024C794.77 1024 1024 794.77 1024 512C1024 229.23 794.77 0 512 0C229.23 0 0 229.23 0 512C0 794.77 229.23 1024 512 1024Z" fill="#728DBE"/>
<path d="M510.16 257.46C380.25 257.46 388.36 313.8 388.36 313.8L388.5 372.17H512.5V389.69H339.26C339.26 389.69 256.13 380.26 256.13 511.35C256.13 642.44 328.69 637.79 328.69 637.79H372V577C372 577 369.67 504.44 443.4 504.44H566.4C566.4 504.44 635.48 505.56 635.48 437.67V325.38C635.48 325.38 645.92 257.46 510.16 257.46ZM441.8 296.71C446.21 296.71 450.522 298.018 454.189 300.468C457.856 302.919 460.715 306.401 462.402 310.476C464.09 314.551 464.532 319.035 463.671 323.36C462.811 327.686 460.687 331.66 457.568 334.778C454.45 337.897 450.476 340.021 446.15 340.881C441.825 341.742 437.341 341.3 433.266 339.612C429.191 337.925 425.708 335.066 423.258 331.399C420.808 327.732 419.5 323.421 419.5 319.01C419.497 316.081 420.072 313.18 421.192 310.473C422.312 307.766 423.954 305.307 426.026 303.236C428.097 301.164 430.556 299.522 433.263 298.402C435.97 297.282 438.871 296.707 441.8 296.71ZM513.8 766.55C643.71 766.55 635.6 710.21 635.6 710.21L635.46 651.84H511.46V634.31H684.74C684.74 634.31 767.87 643.74 767.87 512.65C767.87 381.56 695.31 386.21 695.31 386.21H652V447C652 447 654.33 519.56 580.6 519.56H457.6C457.6 519.56 388.52 518.44 388.52 586.33V698.62C388.52 698.62 378.08 766.54 513.84 766.54L513.8 766.55ZM582.16 727.3C577.749 727.3 573.438 725.992 569.771 723.542C566.103 721.091 563.245 717.609 561.557 713.534C559.87 709.459 559.428 704.975 560.288 700.649C561.149 696.324 563.273 692.35 566.391 689.231C569.51 686.113 573.484 683.989 577.809 683.128C582.135 682.268 586.619 682.71 590.694 684.397C594.769 686.085 598.251 688.944 600.702 692.611C603.152 696.278 604.46 700.589 604.46 705C604.463 710.907 602.119 716.574 597.945 720.754C593.771 724.934 588.107 727.285 582.2 727.29L582.16 727.3Z" fill="white"/>
</g>
<defs>
<clipPath id="clip0_2_3243">
<rect width="1024" height="1024" fill="white"/>
</clipPath>
</defs>
</svg>

<svg xmlns="http://www.w3.org/2000/svg" viewBox="0 0 1024 1024">
   <circle cx="512" cy="512" r="512" style="fill:#3776ab"/>
   <path d="M510.16 257.46c-129.91 0-121.8 56.34-121.8 56.34l.14 58.37h124v17.52H339.26s-83.13-9.43-83.13 121.66 72.56 126.44 72.56 126.44H372V577s-2.33-72.56 71.4-72.56h123s69.08 1.12 69.08-66.77V325.38s10.44-67.92-125.32-67.92Zm-68.36 39.25a22.3 22.3 0 1 1-22.3 22.3 22.28 22.28 0 0 1 22.3-22.3Zm72 469.84c129.91 0 121.8-56.34 121.8-56.34l-.14-58.37h-124v-17.53h173.28s83.13 9.43 83.13-121.66-72.56-126.44-72.56-126.44H652V447s2.33 72.56-71.4 72.56h-123s-69.08-1.12-69.08 66.77v112.29s-10.44 67.92 125.32 67.92Zm68.36-39.25a22.3 22.3 0 1 1 22.3-22.3 22.28 22.28 0 0 1-22.26 22.29Z" style="fill:#fff"/>
</svg>
